X:1
T:Title
%%score { ( 1 3 5 ) | ( 2 4 ) }
L:1/8
M:4/4
K:F
V:1 treble nm="Grand Piano"
V:3 treble 
V:5 treble 
V:2 bass 
V:4 bass 
V:1
 z4 z2[Q:1/4=100] FG | A2 A2 [GB]2 [GB]2 | [Ac]2 [Ac]2 A2 FG | A2 A2 [GB]2 [FA]2 |[M:3/4] [EG]6 | %5
[M:1/4] FG |[M:4/4] A2 A2 [GB]2 [GB]2 | [Ac]2 [Ac]2 A2 AA | G2 G2 A2 =B2 | %9
[M:3/4] c2- [Fc-]2 [Gc]2 |[M:1/4] C>F |[M:4/4] A3 A B3 A | [FA] [EG]3- [EG] z [B,C]>[B,CE] | %13
 [B,EG]3 [A,F] [CFA]3 [B,EG] |[M:3/4] GF- F3 z |[M:1/4] F>A |[M:4/4] c3 c d3 c | %17
 [_Ec] [DB]3- [DB] z [DF]>[^CG] | A<C A<C G3 F |[M:3/4] F6 |[M:1/4] FG |[M:4/4] A2 A2 [GB]2 [GB]2 | %22
 [Ac]2 [Ac]2 A2 FG | A2 A2 [GB]2 [FA]2 |[M:3/4] [EG]6 |[M:1/4] FG |[M:4/4] A2 A2 [GB]2 [GB]2 | %27
 [Ac]2 [Ac]2 A2 AA | G2 G2 A2 =B2 |[M:3/4] c2- [Fc-]2 [Gc]2 | c>c [Fd]2 c2 | A>G F2 F2 | %32
 c>c [Fd]2 [Fc]2 | [FA]2 [EG]4 | [Fc]>[Fc] [Fd]2 c2 | A>G F2 F2 | A2 [DB]2 [CA]2 | %37
[M:2/4] [B,CG]2 [A,CF]2- |[M:1/4] [A,CF]2 |[M:4/4] FG A2 A2 [GB]2 | [GB]2 [Ac]2 [Ac]2 A2 | %41
 FG A2 A2 [GB]2 |[M:3/4] [FA]2 [EG]4- |[M:1/4] [EG]2 | FG |[M:4/4] A2 A2 [GB]2 [GB]2 | %46
 [Ac]2 [Ac]2 A2 AA | G2 G2 A2 =B2 |[M:3/4] c2- [Fc-]2 [Gc]2 |[M:1/4] c2 |[M:4/4] c6 z2 | %51
 [FBd]2 [FAc]2 F-[FG] F2 | A6 z2 | [CFA]2 [CAc]2 [CAc]2 c2 | c6 z2 | [FBd]2 [FAc]2 F-[FG] [A,CF]2 | %56
 [B,EG]3 [A,F] [B,EG]2 [CEA]2 |[M:3/4] [A,F]6 |] %58
V:2
 z4 z2 [F,A,C][F,B,C] | [F,CF]2 [F,CF]2 [C,C]2 [C,C]2 | [F,C]2 [F,C]2 [F,CF]2 [F,A,][F,B,F] | %3
 [F,CF]2 [F,CF]2 [E,C]2 [F,C]2 |[M:3/4] [C,C]6 |[M:1/4] [F,A,C][F,B,C] | %6
[M:4/4] [F,CF]2 [F,CF]2 [C,C]2 [C,C]2 | [F,C]2 [F,C]2 [F,CF]2 [^F,C_E][F,CE] | %8
 [G,CE]2 [G,CE]2 [G,=B,F]2 [G,DF]2 |[M:3/4][K:bass] z2 A,2 B,2 |[M:1/4] [F,A,]>[F,A,C] | %11
[M:4/4] [F,CF]3 [F,CF] [F,DF]3 [F,CF] | [C,C] [C,C]3- [C,C] z C,>C, | C,3 C, C,3 C, | %14
[M:3/4] [F,B,C][F,A,C]- [F,A,C]3 z |[M:1/4] [F,A,]>[F,CF] | %16
[M:4/4] [F,A,F]3 [F,A,F] [F,B,F]3 [F,A,F] | [B,,B,] [B,,F,]3- [B,,F,] z [B,,F,]>[B,,F,] | %18
 [C,F,C]<[C,A,] [C,F,C]<[C,A,] [C,B,C]3 [F,A,C] |[M:3/4] [F,A,C]6 |[M:1/4] [F,A,C][F,B,C] | %21
[M:4/4] [F,CF]2 [F,CF]2 [C,C]2 [C,C]2 | [F,C]2 [F,C]2 [F,CF]2 [F,A,][F,B,F] | %23
 [F,CF]2 [F,CF]2 [E,C]2 [F,C]2 |[M:3/4] [C,C]6 |[M:1/4] [F,A,C][F,B,C] | %26
[M:4/4] [F,CF]2 [F,CF]2 [C,C]2 [C,C]2 | [F,C]2 [F,C]2 [F,CF]2 [^F,C_E][F,CE] | %28
 [G,CE]2 [G,CE]2 [G,=B,F]2 [G,DF]2 |[M:3/4][K:bass] z2 A,2 B,2 | %30
 [F,A,F]>[F,A,F] [B,,B,]2 [F,A,F]2 | [F,CF]>[F,B,E] [F,A,]2 [F,A,C]2 | %32
 [F,A,F]>[F,A,F] [B,,B,]2 [F,A,]2 | [F,C]2 [C,C]4 | [F,A,]>[F,A,] [B,,B,]2 [F,A,F]2 | %35
 [F,CF]>[F,B,E] [F,A,]2 [F,A,C]2 | [E,C]2 [B,,F,]2 [C,F,]2 |[M:2/4] C,2 F,,2- |[M:1/4] F,,2 | %39
[M:4/4] [F,A,C][F,B,C] [F,CF]2 [F,CF]2 [C,C]2 | [C,C]2 [F,C]2 [F,C]2 [F,CF]2 | %41
 [F,A,][F,B,F] [F,CF]2 [F,CF]2 [E,C]2 |[M:3/4] [F,C]2 [C,C]4- |[M:1/4] [C,C]2 | [F,A,C][F,B,C] | %45
[M:4/4] [F,CF]2 [F,CF]2 [C,C]2 [C,C]2 | [F,C]2 [F,C]2 [F,CF]2 [^F,C_E][F,CE] | %47
 [G,CE]2 [G,CE]2 [G,=B,F]2 [G,DF]2 |[M:3/4][K:bass] z2 A,2 B,2 |[M:1/4][K:treble] A2 | %50
[M:4/4] A6[K:bass] z2 | B,,2 F,2 z B, A,2 | C2 F,2 F,2 C,2 | F,2 F,2 F,2[K:treble] A2 | %54
 A6[K:bass] z2 | B,,2 F,2 z B, F,2 | C,3 C, C,2 C,2 |[M:3/4] F,6 |] %58
V:3
 x8 | x8 | x8 | x8 |[M:3/4] x6 |[M:1/4] x2 |[M:4/4] x8 | x8 | x8 |[M:3/4] [CE]2 z2 z2 |[M:1/4] x2 | %11
[M:4/4] x8 | x8 | x8 |[M:3/4] x6 |[M:1/4] x2 |[M:4/4] x8 | x8 | x8 |[M:3/4] x6 |[M:1/4] x2 | %21
[M:4/4] x8 | x8 | x8 |[M:3/4] x6 |[M:1/4] x2 |[M:4/4] x8 | x8 | x8 |[M:3/4] [CE]2 z2 z2 | x6 | x6 | %32
 x6 | x6 | x6 | x6 | x6 |[M:2/4] x4 |[M:1/4] x2 |[M:4/4] x8 | x8 | x8 |[M:3/4] x6 |[M:1/4] x2 | %44
 x2 |[M:4/4] x8 | x8 | x8 |[M:3/4] [CE]2 z2 z2 |[M:1/4] x2 |[M:4/4] z2 C2 C2 [FAc]2 | %51
 z4 .[CA]2 z2 | z4 F2 [CEG]2 | x8 | z2 C2 C2 [FAc]2 | z4 .[CA]2 z2 | x8 |[M:3/4] x6 |] %58
V:4
 x8 | x8 | x8 | x8 |[M:3/4] x6 |[M:1/4] x2 |[M:4/4] x8 | x8 | x8 |[M:3/4][K:bass] C,6 |[M:1/4] x2 | %11
[M:4/4] x8 | x8 | x8 |[M:3/4] x6 |[M:1/4] x2 |[M:4/4] x8 | x8 | x8 |[M:3/4] x6 |[M:1/4] x2 | %21
[M:4/4] x8 | x8 | x8 |[M:3/4] x6 |[M:1/4] x2 |[M:4/4] x8 | x8 | x8 |[M:3/4][K:bass] C,6 | x6 | x6 | %32
 x6 | x6 | x6 | x6 | x6 |[M:2/4] x4 |[M:1/4] x2 |[M:4/4] x8 | x8 | x8 |[M:3/4] x6 |[M:1/4] x2 | %44
 x2 |[M:4/4] x8 | x8 | x8 |[M:3/4][K:bass] C,6 |[M:1/4][K:treble] x2 | %50
[M:4/4] z2[K:bass] F,2 F,2 F,2 | z4 F,2 z2 | x8 | x6[K:treble] x2 | z2[K:bass] F,2 F,2 G,2 | %55
 z4 F,2 z2 | x8 |[M:3/4] x6 |] %58
V:5
 x8 | x8 | x8 | x8 |[M:3/4] x6 |[M:1/4] x2 |[M:4/4] x8 | x8 | x8 |[M:3/4] x6 |[M:1/4] x2 | %11
[M:4/4] x8 | x8 | x8 |[M:3/4] x6 |[M:1/4] x2 |[M:4/4] x8 | x8 | x8 |[M:3/4] x6 |[M:1/4] x2 | %21
[M:4/4] x8 | x8 | x8 |[M:3/4] x6 |[M:1/4] x2 |[M:4/4] x8 | x8 | x8 |[M:3/4] x6 | x6 | x6 | x6 | %33
 x6 | x6 | x6 | x6 |[M:2/4] x4 |[M:1/4] x2 |[M:4/4] x8 | x8 | x8 |[M:3/4] x6 |[M:1/4] x2 | x2 | %45
[M:4/4] x8 | x8 | x8 |[M:3/4] x6 |[M:1/4] x2 |[M:4/4] x8 | x8 | z2 C4 z2 | x8 | x8 | x8 | x8 | %57
[M:3/4] x6 |] %58

